assets/img/icons/prediction_crystal_ball.svg

<svg fill="none" height="64" viewBox="0 0 64 64" width="64" xmlns="http://www.w3.org/2000/svg"><path d="m22.6166 29.7751c.1047-.4537.5088-.7751.9744-.7751h16.818c.4656 0 .8697.3215.9744.7752l5.0769 21.9999c.1446.6267-.3313 1.2249-.9744 1.2249h-26.9718c-.6431 0-1.119-.5982-.9744-1.2249z" fill="#c4f0f5" stroke="#000" stroke-width="2"/><circle cx="32" cy="28" fill="#fff" r="21" stroke="#000" stroke-width="2"/><circle cx="32" cy="28" fill="#c4f0f5" r="16"/><g stroke="#000" stroke-width="2"><rect fill="#c4f0f5" height="4" rx="1" width="34" x="15" y="53"/><path d="m33.9168 19.0304c-.4669-1.3434-2.3667-1.3434-2.8336 0l-1.5329 4.4097-4.6676.0951c-1.4219.029-2.0089 1.8358-.8756 2.695l3.7202 2.8205-1.3519 4.4686c-.4118 1.3612 1.1252 2.4779 2.2925 1.6656l3.8321-2.6666 3.8321 2.6666c1.1673.8123 2.7043-.3044 2.2925-1.6656l-1.3519-4.4686 3.7202-2.8205c1.1333-.8592.5463-2.666-.8756-2.695l-4.6676-.0951z" fill="#fff"/></g></svg>

<svg width="64" height="64" viewBox="0 0 64 64" fill="none" xmlns="http://www.w3.org/2000/svg">
<path d="M22.6166 29.7751C22.7213 29.3214 23.1254 29 23.591 29L40.409 29C40.8746 29 41.2787 29.3215 41.3834 29.7752L46.4603 51.7751C46.6049 52.4018 46.129 53 45.4859 53H18.5141C17.871 53 17.3951 52.4018 17.5397 51.7751L22.6166 29.7751Z" fill="#C4F0F5" stroke="black" stroke-width="2"/>
<circle cx="32" cy="28" r="21" fill="white" stroke="black" stroke-width="2"/>
<circle cx="32" cy="28" r="16" fill="#C4F0F5"/>
<rect x="15" y="53" width="34" height="4" rx="1" fill="#C4F0F5" stroke="black" stroke-width="2"/>
<path d="M33.9168 19.0304C33.4499 17.687 31.5501 17.687 31.0832 19.0304L29.5503 23.4401L24.8827 23.5352C23.4608 23.5642 22.8738 25.371 24.0071 26.2302L27.7273 29.0507L26.3754 33.5193C25.9636 34.8805 27.5006 35.9972 28.6679 35.1849L32.5 32.5183L36.3321 35.1849C37.4994 35.9972 39.0364 34.8805 38.6246 33.5193L37.2727 29.0507L40.9929 26.2302C42.1262 25.371 41.5392 23.5642 40.1173 23.5352L35.4497 23.4401L33.9168 19.0304Z" fill="white" stroke="black" stroke-width="2"/>
</svg>
